X: 1
T: Waterman's
R: jig
M: 6/8
L: 1/8
K: Emin
M:7/8
E2B2 BAG|A2GA B2E|GAA2 AGA|Bc BG AGF|
E2B2 BAG|A2GA B2E|GAA2 ABG|AB GF E3:|
g2e2 efg|f2 BA BdB|c2A2 ABG|AB cd eaf|
g2e2 efg|f2 BA BdB|c2A2 ABG|AB GF EGB|
g2e2 efg|a2 gf efd|b2 ag fga|g2 fe fdB|
g2e2 efg|f2 BA BdB|c2A2 ABG|AB GF E3||


Tune 3367	Setting 16431

